X: 22174
T: L'Ville
R: reel
M: 4/4
K: Amajor
AB|:c2 Ac BA G2|ABAF E2 AB|c2 Ac BA G2|
A3 B A2 AB|c2 Ac BA G2|ABAF E2 AB|
[1 c2 ec BA G2|A3 B A2 AB:|2 c2 ec BA G2|A4 e4||
g4 a4|e4 c2 A2|c2 e2 f2 d2-|d2 f2 e2 c2-|
c2 A2 Bc B2|M:2/4
A4|M:4/4
g4 a4|e4 c2 A2|
c2 e2 f2 d2-|d2 f2 e2 c2-|c2 A2 Bc B2|A3||

